X: 41474
T: Tŷ A Gardd
R: jig
M: 6/8
K: Gmajor
|:B2 G GFG|B2 G GFG|A2 A ABc|d3 B3|
B2 G GFG|B2 G GFG|A2 A ABA|G4 G2:|
|:g2 g gfe|d2 d dcB|A2 A ABc|d3 B3|
g2 g gfe|d2 d dcB|A2 A ABA|G6:|

